Bonsai.Expressions.SelectManyBuilder.svg

<?xml version="1.0" encoding="UTF-8" standalone="no"?>
<svg
   xmlns:dc="http://purl.org/dc/elements/1.1/"
   xmlns:cc="http://creativecommons.org/ns#"
   xmlns:rdf="http://www.w3.org/1999/02/22-rdf-syntax-ns#"
   xmlns:svg="http://www.w3.org/2000/svg"
   xmlns="http://www.w3.org/2000/svg"
   xmlns:sodipodi="http://sodipodi.sourceforge.net/DTD/sodipodi-0.dtd"
   xmlns:inkscape="http://www.inkscape.org/namespaces/inkscape"
   width="30"
   height="30"
   version="1.1"
   id="svg3849"
   sodipodi:docname="Bonsai.Expressions.SelectManyBuilder.svg"
   inkscape:version="0.92.4 (5da689c313, 2019-01-14)">
  <metadata
     id="metadata3855">
    <rdf:RDF>
      <cc:Work
         rdf:about="">
        <dc:format>image/svg+xml</dc:format>
        <dc:type
           rdf:resource="http://purl.org/dc/dcmitype/StillImage" />
      </cc:Work>
    </rdf:RDF>
  </metadata>
  <defs
     id="defs3853" />
  <sodipodi:namedview
     pagecolor="#ffffff"
     bordercolor="#666666"
     borderopacity="1"
     objecttolerance="10"
     gridtolerance="10"
     guidetolerance="10"
     inkscape:pageopacity="0"
     inkscape:pageshadow="2"
     inkscape:window-width="1819"
     inkscape:window-height="1057"
     id="namedview3851"
     showgrid="false"
     inkscape:zoom="28.231183"
     inkscape:cx="15.381356"
     inkscape:cy="14.872881"
     inkscape:window-x="93"
     inkscape:window-y="-8"
     inkscape:window-maximized="1"
     inkscape:current-layer="svg3849" />
  <path
     d="M 21.326,15.8 C 19.4586,15.8 17.9246,17.3323 17.9246,19.1996 17.9246,21.067 19.4586,22.6011 21.326,22.6011 23.1934,22.6011 24.7257,21.067 24.7257,19.1996 24.7257,17.3323 23.1934,15.8 21.326,15.8 Z M 21.326,6.8 C 19.4586,6.8 17.9246,8.3324 17.9246,10.1997 17.9246,12.0671 19.4586,13.6011 21.326,13.6011 23.1934,13.6011 24.7257,12.0671 24.7257,10.1997 24.7257,8.3324 23.1934,6.8 21.326,6.8 Z M 8.4696,6.8 C 6.6022,6.8 5.0682,8.3324 5.0682,10.1997 5.0682,12.0671 6.6022,13.6011 8.4696,13.6011 10.337,13.6011 11.8693,12.0671 11.8693,10.1997 11.8693,8.3324 10.337,6.8 8.4696,6.8 Z"
     id="path3847"
     inkscape:connector-curvature="0"
     style="color:#000000;stroke-width:1.80939996;stroke-linecap:round"
     sodipodi:nodetypes="sssssssssssssss" />
  <path
     style="color:#000000;font-style:normal;font-variant:normal;font-weight:normal;font-stretch:normal;font-size:medium;line-height:normal;font-family:sans-serif;font-variant-ligatures:normal;font-variant-position:normal;font-variant-caps:normal;font-variant-numeric:normal;font-variant-alternates:normal;font-feature-settings:normal;text-indent:0;text-align:start;text-decoration:none;text-decoration-line:none;text-decoration-style:solid;text-decoration-color:#000000;letter-spacing:normal;word-spacing:normal;text-transform:none;writing-mode:lr-tb;direction:ltr;text-orientation:mixed;dominant-baseline:auto;baseline-shift:baseline;text-anchor:start;white-space:normal;shape-padding:0;clip-rule:nonzero;display:inline;overflow:visible;visibility:visible;opacity:1;isolation:auto;mix-blend-mode:normal;color-interpolation:sRGB;color-interpolation-filters:linearRGB;solid-color:#000000;solid-opacity:1;vector-effect:none;fill-opacity:1;fill-rule:evenodd;stroke:none;stroke-width:1.93192863;stroke-linecap:round;stroke-linejoin:miter;stroke-miterlimit:4;stroke-dasharray:none;stroke-dashoffset:0;stroke-opacity:1;color-rendering:auto;image-rendering:auto;shape-rendering:auto;text-rendering:auto;enable-background:accumulate"
     d="M 15.033163,6.0429688 C 14.393751,6.0313788 13.963394,6.6488172 14.057249,7.2159961 14.060546,12.508684 14.050654,17.801687 14.062196,23.094179 14.101427,23.834953 15.153131,24.224466 15.707304,23.703468 16.200176,23.281381 15.993574,22.617497 16.03778,22.064017 16.035479,17.011299 16.042382,11.958428 16.034328,6.9058063 16.00019,6.4234528 15.540587,6.0271866 15.033163,6.0429688 Z"
     id="path4403"
     inkscape:connector-curvature="0" />
</svg>

<?xml version="1.0" encoding="UTF-8"?>
<svg width="30" height="30" version="1.1" xmlns="http://www.w3.org/2000/svg">
 <path d="m21.326 15.8c-1.8674 0-3.4014 1.5323-3.4014 3.3996 0 1.8674 1.534 3.4015 3.4014 3.4015s3.3997-1.5341 3.3997-3.4015c0-1.8673-1.5323-3.3996-3.3997-3.3996zm0-9c-1.8674 0-3.4014 1.5324-3.4014 3.3997 0 1.8674 1.534 3.4014 3.4014 3.4014s3.3997-1.534 3.3997-3.4014c0-1.8673-1.5323-3.3997-3.3997-3.3997zm-7.299-1.1-0.12968 18.404 1.8703 0.01 0.12968-18.404zm-5.5574 1.1c-1.8674 0-3.4014 1.5324-3.4014 3.3997 0 1.8674 1.534 3.4014 3.4014 3.4014s3.3997-1.534 3.3997-3.4014c0-1.8673-1.5323-3.3997-3.3997-3.3997z" color="#000000" stroke-linecap="round" stroke-width="1.8094"/>
</svg>
